X:1
T:Our Song of Jubilee
T:Our Song of Jubilee
T:William Fiske Sherwin
T:Maria Burbank Williams Barnes, 1869
T:Public Domain Courtesy of the Cyber Hymnal™
T:Public Domain Courtesy of the Cyber Hymnal™
C:William Fiske Sherwin
Z:Public Domain
Z:Courtesy of the Cyber Hymnal™
%%score ( 1 2 ) ( 3 4 )
L:1/8
Q:1/4=105
M:4/4
K:Ab
V:1 treble 
V:2 treble 
V:3 bass 
V:4 bass 
V:1
 ([Ec][DB]) | [CA]2 [CA]2 [CA]2 [CA]2 | ([B,G][CA]) ([DB][Ec]) [CA]2 (GA) | %3
w: 1.~We *|sing our song of|ju- * bi- * lee, Our *|
w: 2.~We *|praise Him for our|mer- * cies * past, And *|
w: 3.~Our *|Sab- bath School, O|may * He * bless, And *|
 [EB]2 [Ec]2 [Ed]2 [Ec]2 | [EB]2 [=DB]2 !fermata![EB]2 ([Ec][_DB]) | [CA]2 [DA]2 [EA]2 [EA]2 | %6
w: voic- es ris- ing|loud and free; And *|with the notes of|
w: at His feet our|cares we cast; And *|O may He who|
w: guard its lambs with|ten- der- ness; And *|lead us gent- ly|
 (GA) (Bc) [EA]2 (Ac) | [Ae]2 [Gd]2 [Ac]2 (dB) | [EA]2 [EG]2 [EA]4 || %9
w: sweet * ac- * cord, We *|praise our ev- er *|bless- èd Lord.|
w: guides * our * way For- *|bid our youth- ful *|steps to stray.|
w: when * we * die To *|our good Shep- herd’s *|fold on high.|
"^Refrain" [ce]2 [ce]>[Bd] [Ac]2 [Ac]2 | [Bd]2 [Bd]>[Ac] [GB]2 [GB]2 | %11
w: ||
w: Sing- ing to- ge- ther,|sing- ing to- ge- ther,|
w: ||
 [Ac]2 [EA]>[EG] [DF]2 ([=DB][FA]) | ([EG][FA]) [GB]>[Ac] [GB]4 | [Ae]2 [ce]>[Bd] [Ac]2 [Ac]2 | %14
w: |||
w: Teach- ers and schol- ars *|glad- * ly u- nite;|Sing- ing to- ge- ther,|
w: |||
 [Gd]2 [Bd]>[Ac] [GB]2 [GB]2 | [Ac]2 [EB][EA] (FF)[EA][FB] | [Ec]2 [Ec]>[DB] [CA]2 |] %17
w: |||
w: sing- ing to- ge- ther,|Love fills our hearts, * and our|fac- es are bright.|
w: |||
V:2
 x2 | x8 | x6 E2 | x8 | x8 | x8 | E2 E2 x E2 x | x6 F2 | x8 || x8 | x8 | x8 | x8 | x8 | x8 | %15
 x4 D2 x2 | x6 |] %17
V:3
 A,[E,G,] | [A,,A,]2 [A,,E,]2 [A,,E,]2 [A,,A,]2 | (B,A,) [E,G,]2 [A,,A,]2 (B,C) | %3
 [E,G,]2 [E,A,]2 [E,A,]2 [E,A,]2 | [E,G,]2 [B,,F,]2 !fermata![E,G,]2 [E,G,]2 | %5
 [A,,A,]2 [B,,A,]2 [C,A,]2 [A,,C]2 | (B,C) (DE) [A,C]2 [A,,C]2 | [A,,C]2 [B,,C]2 [C,C]2 (A,D) | %8
 [E,C]2 [E,B,]2 [A,,C]4 || A,2 A,>A, A,2 A,2 | [E,E]2 [E,E]>[E,E] [E,E]2 [E,E]2 | %11
 A,2 [C,A,]>[C,A,] [D,A,]2 [B,,B,]2 | [E,B,]2 [E,E]>[E,E] [E,E]4 | %13
 [A,,A,C]2 [A,,A,C]>[A,,A,C] [A,,A,E]2 [A,,A,E]2 | [E,E]2 [E,B,]>[E,C] [E,D]2 [E,D]2 | %15
 [A,E]2 [C,A,][C,A,] (A,B,)[C,A,][D,A,] | [E,A,]2 [E,G,]>[E,G,] [A,,A,]2 |] %17
V:4
 A, x | x8 | E,2 x3 E,2 x | x8 | x8 | x8 | E,2 E,2 x4 | x6 D,2 | x8 || A,2 A,>A, A,2 A,2 | x8 | %11
 A,2 x6 | x8 | x8 | x8 | x4 D,2 x2 | x6 |] %17

